X:1
T:Psalm 40
T:Psalm 40
T:Claude Goudimel (1514-1572)
T:© 2012 by Paul R Marchesano. May be freely copied for nonprofit use.
T:© 2012 by Paul R Marchesano. May be freely copied for nonprofit use.
T:© 2012 by Paul R Marchesano. May be freely copied for nonprofit use.
C:Claude Goudimel
C:(1514-1572)
Z:© 2012 by Paul R Marchesano. May be freely copied for nonprofit use.
%%score [ 1 2 3 4 ]
L:1/8
Q:1/4=140
M:2/2
K:C
V:1 treble nm="Soprano" snm="S"
V:2 treble nm="Alto" snm="A"
V:3 treble-8 nm="Tenor" snm="T"
V:4 bass nm="Bass" snm="B"
V:1
 E4 E2 E2 | G4 A4 | c2 B4 A2- | A2 G2 A4 | z4 A4 | c2 c2 B2 B2 | A4 A4 | G4 z4 | c4 B2 A2 | %9
w: 1.A- prés a-|voir con-|stan- ment at-|* ten- du,|de|l'e- ter- nel la|vo- lon-|té,|l s'est tour-|
w: 2.J'ay pu- blie|tâ jus-|ti- ce et|_ pre- sché,|voir-|e sans fein- dre?au-|cu- né-|ment:|sei- gneur tu|
 G2 E2 G4 | A4 E4 | z4 A4 | c4 d4 | e2 c2 d2 e2 | c4 B4 | A4 z4 | E4 A2 A2 | G2 G2 F4 | E4 z4 | %19
w: ne de mon|co- sté,|et|a mon|cri au be- soin|en- ten-|du,|Hors de fançe|et d'or- du-|re,|
w: le sais, et|com- ment|rein|je n'en|ay te- nu clos|ne ca-|ché,|Ta loy- au-|té con- stan-|té,|
 E4 A2 A2 | G2 G2 F4 | E4 z4 | e4 d2 c2 |[M:3/2] c2 B2 c4 c4 |[M:4/2] c2 c2 B4 A4 G4 | %25
w: et pro- fon-|deur ob- scu-|re,|d'un gouf- fre|m'a ti- ré: a|mes piés af- fer- mis,|
w: ton ai- de|tant pius- san-|te|Je dé- clar-|e?a cha- cun: J'an-|non- ce ta bon- té|
[M:2/2] z4 c4 |[M:4/2] c2 c2 B4 A4 G4 |[M:2/2] z4 E4 | ^F2 A2 A2 G2 | A8 |] %30
w: et|au che- min re- mis,|sur|un roc as- seu-|ré.|
w: et|grand? fi- dé- li- té,|au|mi- lieu du com-|mun.|
V:2
 B,4 B,2 B,2 | E4 E4 | E2 E2 F4 | E4 E4 | z4 E4 | A2 A2 G2 D2 | F4 F4 | E4 z4 | E4 E2 C2 | %9
w: 1.A- prés a-|voir con-|stan- ment at-|ten- du,|de|l'e- ter- nel la|vo- lon-|té,|l s'est tour-|
w: 2.J'ay pu- blie|tâ jus-|ti- ce et|pre- sché,|voir-|e sans fein- dre?au-|cu- né-|ment:|sei- gneur tu|
 E2 B,2 E4 | ^F4 G4 | z4 E4 | E4 G4 | G2 E2 F2 G2 | E4 E4 | E4 z4 | C4 E2 E2 | E2 E2 D4 | ^C4 z4 | %19
w: ne de mon|co- sté,|et|a mon|cri au be- soin|en- ten-|du,|Hors de fançe|et d'or- du-|re,|
w: le sais, et|com- ment|rein|je n'en|ay te- nu clos|ne ca-|ché,|Ta loy- au-|té con- stan-|té,|
 =C4 E2 E2 | E2 E2 D4 | ^C4 z4 | A4 A2 A2 |[M:3/2] A2 G2 G4 G4 |[M:4/2] A2 G2 G4 ^F4 E4 | %25
w: et pro- fon-|deur ob- scu-|re,|d'un gouf- fre|m'a ti- ré: a|mes piés af- fer- mis,|
w: ton ai- de|tant pius- san-|te|Je dé- clar-|e?a cha- cun: J'an-|non- ce ta bon- té|
[M:2/2] z4 G4 |[M:4/2] A2 G2 G4 ^F4 E4 |[M:2/2] z4 B,4 | D2 E2 E2 E2 | E8 |] %30
w: et|au che- min re- mis,|sur|un roc as- seu-|ré.|
w: et|grand? fi- dé- li- té,|au|mi- lieu du com-|mun.|
V:3
 E4 G2 G2 | c4 c4 | A2 G2 d4 | B4 A4 | z4 A4 | e2 e2 e2 B2 | c4 d4 | B4 z4 | A4 G2 A2 | B2 G2 B4 | %10
w: 1.A- prés a-|voir con-|stan- ment at-|ten- du,|de|l'e- ter- nel la|vo- lon-|té,|l s'est tour-|ne de mon|
w: 2.J'ay pu- blie|tâ jus-|ti- ce et|pre- sché,|voir-|e sans fein- dre?au-|cu- né-|ment:|sei- gneur tu|le sais, et|
 d4 G4 | z4 c4 | A2 c2- cB/A/ B2 | c2 G2 A2 c2- | c2 A4 ^G2 | A4 z4 | A4 c2 c2 | c2 c2 A4 | A4 z4 | %19
w: co- sté,|et|a _ _ _ _ mon|cri au be- soin|_ en- ten-|du,|Hors de fançe|et d'or- du-|re,|
w: com- ment|rein|je _ _ _ _ n'en|ay te- nu clos|_ ne ca-|ché,|Ta loy- au-|té con- stan-|té,|
 A4 c2 c2 | c2 c2 A4 | A4 z4 | c4 d2 e2 |[M:3/2] f2 d2 c4 e4 |[M:4/2] f2 e2 d4 d4 B4 | %25
w: et pro- fon-|deur ob- scu-|re,|d'un gouf- fre|m'a ti- ré: a|mes piés af- fer- mis,|
w: ton ai- de|tant pius- san-|te|Je dé- clar-|e?a cha- cun: J'an-|non- ce ta bon- té|
[M:2/2] z4 e4 |[M:4/2] f2 e2 d4 d4 B4 |[M:2/2] z4 G4 | A2 c2 B2 B2 | A8 |] %30
w: et|au che- min re- mis,|sur|un roc as- seu-|ré.|
w: et|grand? fi- dé- li- té,|au|mi- lieu du com-|mun.|
V:4
 E,4 E,2 E,2 | C,4 A,,4 | A,,2 C,2 D,4 | E,4 A,,4 | z4 A,4 | A,2 A,2 E,2 G,2 | F,4 D,4 | E,4 z4 | %8
w: 1.A- prés a-|voir con-|stan- ment at-|ten- du,|de|l'e- ter- nel la|vo- lon-|té,|
w: 2.J'ay pu- blie|tâ jus-|ti- ce et|pre- sché,|voir-|e sans fein- dre?au-|cu- né-|ment:|
 A,,4 E,2 F,2 | E,2 E,2 E,4 | D,4 C,4 | z4 A,4 | A,4 G,4 | C,2 E,2 D,2 C,2 | C,4 E,4 | A,,4 z4 | %16
w: l s'est tour-|ne de mon|co- sté,|et|a mon|cri au be- soin|en- ten-|du,|
w: sei- gneur tu|le sais, et|com- ment|rein|je n'en|ay te- nu clos|ne ca-|ché,|
 A,,4 A,,2 A,,2 | C,2 C,2 D,4 | A,,4 z4 | A,,4 A,,2 A,,2 | C,2 C,2 D,4 | A,,4 z4 | A,4 D,2 A,2 | %23
w: Hors de fançe|et d'or- du-|re,|et pro- fon-|deur ob- scu-|re,|d'un gouf- fre|
w: Ta loy- au-|té con- stan-|té,|ton ai- de|tant pius- san-|te|Je dé- clar-|
[M:3/2] F,2 G,2 C,4 C,4 |[M:4/2] F,2 C,2 G,4 D,4 E,4 |[M:2/2] z4 C,4 |[M:4/2] F,2 C,2 G,4 D,4 E,4 | %27
w: m'a ti- ré: a|mes piés af- fer- mis,|et|au che- min re- mis,|
w: e?a cha- cun: J'an-|non- ce ta bon- té|et|grand? fi- dé- li- té,|
[M:2/2] z4 E,4 | D,2 A,,2 E,2 E,2 | A,,8 |] %30
w: sur|un roc as- seu-|ré.|
w: au|mi- lieu du com-|mun.|

